src/icons/google.svg

<svg xmlns="http://www.w3.org/2000/svg" class="h-[18px] w-[18px]" viewBox="0 0 90 92" fill="none" xmlns:v="https://vecta.io/nano"><path d="M90 47.1c0-3.1-.3-6.3-.8-9.3H45.9v17.7h24.8c-1 5.7-4.3 10.7-9.2 13.9l14.8 11.5C85 72.8 90 61 90 47.1z" fill="#4280ef"/><path d="M45.9 91.9c12.4 0 22.8-4.1 30.4-11.1L61.5 69.4c-4.1 2.8-9.4 4.4-15.6 4.4-12 0-22.1-8.1-25.8-18.9L4.9 66.6c7.8 15.5 23.6 25.3 41 25.3z" fill="#34a353"/><path d="M20.1 54.8c-1.9-5.7-1.9-11.9 0-17.6L4.9 25.4c-6.5 13-6.5 28.3 0 41.2l15.2-11.8z" fill="#f6b704"/><path d="M45.9 18.3c6.5-.1 12.9 2.4 17.6 6.9L76.6 12C68.3 4.2 57.3 0 45.9.1c-17.4 0-33.2 9.8-41 25.3l15.2 11.8c3.7-10.9 13.8-18.9 25.8-18.9z" fill="#e54335"/></svg>

<svg class="h-[18px] w-[18px]" viewBox="0 0 90 92" fill="none" xmlns="http://www.w3.org/2000/svg">
<path d="M90 47.1C90 44 89.7 40.8 89.2 37.8H45.9V55.5H70.7C69.7 61.2 66.4 66.2 61.5 69.4L76.3 80.9C85 72.8 90 61 90 47.1Z" fill="#4280EF"/>
<path d="M45.9 91.9C58.3 91.9 68.7 87.8 76.3 80.8L61.5 69.4C57.4 72.2 52.1 73.8 45.9 73.8C33.9 73.8 23.8 65.7 20.1 54.9L4.90002 66.6C12.7 82.1 28.5 91.9 45.9 91.9Z" fill="#34A353"/>
<path d="M20.1 54.8C18.2 49.1 18.2 42.9 20.1 37.2L4.90002 25.4C-1.59998 38.4 -1.59998 53.7 4.90002 66.6L20.1 54.8Z" fill="#F6B704"/>
<path d="M45.9 18.3C52.4 18.2 58.8 20.7 63.5 25.2L76.6 12C68.3 4.2 57.3 -3.37034e-06 45.9 0.0999966C28.5 0.0999966 12.7 9.9 4.90002 25.4L20.1 37.2C23.8 26.3 33.9 18.3 45.9 18.3Z" fill="#E54335"/>
</svg>
